docs/inc/icons/repo-forked.svg

<svg height="16" viewBox="0 0 10 16" width="10" xmlns="http://www.w3.org/2000/svg"><path d="m8 1a1.993 1.993 0 0 0 -1 3.72v1.28l-2 2-2-2v-1.28a1.993 1.993 0 0 0 -1-3.72 1.993 1.993 0 0 0 -1 3.72v1.78l3 3v1.78a1.993 1.993 0 0 0 1 3.72 1.993 1.993 0 0 0 1-3.72v-1.78l3-3v-1.78a1.993 1.993 0 0 0 -1-3.72zm-6 3.2c-.66 0-1.2-.55-1.2-1.2s.55-1.2 1.2-1.2 1.2.55 1.2 1.2-.55 1.2-1.2 1.2zm3 10c-.66 0-1.2-.55-1.2-1.2s.55-1.2 1.2-1.2 1.2.55 1.2 1.2-.55 1.2-1.2 1.2zm3-10c-.66 0-1.2-.55-1.2-1.2s.55-1.2 1.2-1.2 1.2.55 1.2 1.2-.55 1.2-1.2 1.2z" fill-rule="evenodd"/></svg>

<svg xmlns="http://www.w3.org/2000/svg" width="10" height="16" viewBox="0 0 10 16"><path fill-rule="evenodd" d="M8 1a1.993 1.993 0 0 0-1 3.72V6L5 8 3 6V4.72A1.993 1.993 0 0 0 2 1a1.993 1.993 0 0 0-1 3.72V6.5l3 3v1.78A1.993 1.993 0 0 0 5 15a1.993 1.993 0 0 0 1-3.72V9.5l3-3V4.72A1.993 1.993 0 0 0 8 1zM2 4.2C1.34 4.2.8 3.65.8 3c0-.65.55-1.2 1.2-1.2.65 0 1.2.55 1.2 1.2 0 .65-.55 1.2-1.2 1.2zm3 10c-.66 0-1.2-.55-1.2-1.2 0-.65.55-1.2 1.2-1.2.65 0 1.2.55 1.2 1.2 0 .65-.55 1.2-1.2 1.2zm3-10c-.66 0-1.2-.55-1.2-1.2 0-.65.55-1.2 1.2-1.2.65 0 1.2.55 1.2 1.2 0 .65-.55 1.2-1.2 1.2z"/></svg>
